X: 61
T:Aitken Drum
M:C
L:1/4
K:G
||:G/2A/2|BBBA/2G/2|E2G&gt;E|DDEG|BAAG/A/|!
BBBA/G/|E2G&gt;E|DDEF|G3:||:G/A/|BBBA/G/|c2ec|BdBG|!
BAAG/A/|BBBA/G/|E2G&gt;E|DDEF|G3:||!

